X:1
L:1/4
M:2/2
K:Ddor
 ^F/G/ | A A A d | B B B e/d/ | ^c d d3/2""^\201"" c/ | d3 :: d/e/ | ^f f f g/""^\201""f/ | e e e ^f | 
 d c B e/d/ | c B A d/e/ | ^f f f g/""^\201""f/ | e e e ^f/^c/ | d e e3/2 d/ | d3 :|
